X:1
T:Title
%%score { ( 1 3 ) | 2 }
L:1/8
M:4/4
K:C
V:1 treble nm="Grand Piano"
V:3 treble 
V:2 bass 
V:1
 z4 z2[Q:1/4=108] [EG]2 | [EG]2 [EA]2 [EB]2 [Ec]2 | [Fc]2 [FB]2 [FB]3 [FB] | %3
 [FB]2 [B,FA]2 [DFB]2 [B,FA]2 |[M:7/8] [EA]2 [EG]2 [EG]3 |[M:1/8] [EG] | %6
[M:4/4] [Ec]2 [Ec]2 [EG]2 ^G2 |[M:9/8] A2 A- A c2- c A2 |[M:4/4] G2 c2 c2 de | %9
[M:7/8] d- d3 [CEc]3 |[M:1/4] ec |[M:4/4] [Fc]2 [FB]4 z2 | [EA]2 [EG]4 z2 | %13
 [CFA]2 [^CGA]2 [^Fd]3 [Fc] |[M:3/4] [GB]6 |[M:1/4] [FG]2 |[M:4/4] [Ec]2 [Ec]2 [Fd]2 [^Fc]2 | %17
[M:9/8] [Ge]2 [^Gc]- [Gc] [Ac]2- [Ac] A2 |[M:4/4] G2 c2 c2 de |[M:7/8] d- d3 [Ec]3 |] %20
V:2
 z4 z2 [C,C]2 | [C,C]2 [C,C]2 [C,G,]2 [C,G,]2 | [D,G,]2 [D,G,]2 [D,G,]3 [D,G,] | %3
 [G,,G,]2 G,,2 G,,2 G,,2 |[M:7/8] [C,C]2 [C,C]2 [C,C]3 |[M:1/8] [C,C] | %6
[M:4/4] [C,G,]2 [C,G,]2 [C,C]2 [E,B,D]2 | %7
[M:9/8] [F,A,C]2 [F,A,D]- [F,A,D] [^F,A,_E]2- [F,A,E] [F,CE]2 | %8
[M:4/4][K:treble] [G,CE]2 [G,CE]2 [G,CE]2 [G,B,F][G,CG] | %9
[M:7/8][K:bass] [G,,G,B,F]- [G,,G,B,F]3 C,3 |[M:1/4][K:treble] GE |[M:4/4] G,G,G,G, G,2 FF | %12
 C,C,C,C, C,2 C,2 | F,2 E,2 [D,A,]3 [D,D] |[M:3/4] [G,D]6 |[M:1/4] [G,B,]2 | %16
[M:4/4] [C,C]2 [C,_B,]2 [C,A,]2 [C,^G,]2 |[M:9/8] [C,G,]2 [E,C]- [E,C] [F,C]2- [F,C] [^F,C_E]2 | %18
[M:4/4][K:treble] [G,CE]2 [G,CE]2 [G,CE]2 [G,B,F][G,CG] | %19
[M:7/8][K:bass] [G,,G,B,F]- [G,,G,B,F]3 [C,G,]3 |] %20
V:3
 x8 | x8 | x8 | x8 |[M:7/8] x7 |[M:1/8] x |[M:4/4] x8 |[M:9/8] x9 |[M:4/4] x8 |[M:7/8] x7 | %10
[M:1/4] x2 |[M:4/4] DDDD D2 dA | CCCC C2 [CEG]2 | x8 |[M:3/4] x6 |[M:1/4] x2 |[M:4/4] x8 | %17
[M:9/8] x9 |[M:4/4] x8 |[M:7/8] x7 |] %20

